public/img/festival-doc-3.svg

<svg width="94" height="94" viewBox="0 0 94 94" fill="none" xmlns="http://www.w3.org/2000/svg">
<g clip-path="url(#clip0)">
<path d="M75.2734 20.9526V86.2891C75.2734 89.5335 72.6429 92.1641 69.3984 92.1641H7.71094C4.46649 92.1641 1.83594 89.5335 1.83594 86.2891V7.71094C1.83594 4.46649 4.46649 1.83594 7.71094 1.83594H56.1797L75.2734 20.9526Z" fill="#C9F3FF"/>
<path d="M75.2961 20.9526V86.2891C75.2961 89.5335 72.6663 92.1641 69.4211 92.1641H7.73366C4.48921 92.1641 1.85938 89.5335 1.85938 86.2891V7.71094C1.85938 4.46649 4.48921 1.83594 7.73366 1.83594H56.2024L75.2961 20.9526Z" fill="#C9F3FF"/>
<path d="M56.1797 15.0705C56.1797 18.315 58.8102 20.9455 62.0547 20.9455H75.2734L56.1797 1.82812V15.0705Z" fill="#FFC66C"/>
<path d="M13.5859 16.5156H38.5547V31.2031H13.5859V16.5156Z" fill="white"/>
<path fill-rule="evenodd" clip-rule="evenodd" d="M90.4414 70.4434C90.4414 82.4401 80.7167 92.1648 68.7207 92.1648C56.7247 92.1648 47 82.4401 47 70.4434C47 58.4474 56.7247 48.7227 68.7207 48.7227C80.7167 48.7227 90.4414 58.4474 90.4414 70.4434Z" fill="white"/>
<path fill-rule="evenodd" clip-rule="evenodd" d="M81.89 70.4427C81.89 77.7162 75.9935 83.6127 68.72 83.6127C61.4466 83.6127 55.5508 77.7162 55.5508 70.4427C55.5508 63.17 61.4466 57.2734 68.72 57.2734C75.9935 57.2734 81.89 63.17 81.89 70.4427Z" fill="#4DBAF6"/>
<path d="M13.5859 33.0391H38.5547C39.5687 33.0391 40.3906 32.2172 40.3906 31.2031V16.5156C40.3906 15.5023 39.5687 14.6797 38.5547 14.6797H13.5859C12.5719 14.6797 11.75 15.5023 11.75 16.5156V31.2031C11.75 32.2172 12.5719 33.0391 13.5859 33.0391ZM15.4219 18.3516H36.7187V29.3672H15.4219V18.3516Z" fill="black"/>
<path d="M48.6523 33.0391H63.5234C64.5368 33.0391 65.3594 32.2172 65.3594 31.2031C65.3594 30.1898 64.5368 29.3672 63.5234 29.3672H48.6523C47.6383 29.3672 46.8164 30.1898 46.8164 31.2031C46.8164 32.2172 47.6383 33.0391 48.6523 33.0391Z" fill="black"/>
<path d="M43.133 44.0547H13.5859C12.5719 44.0547 11.75 44.8773 11.75 45.8906C11.75 46.9047 12.5719 47.7266 13.5859 47.7266H43.133C44.1471 47.7266 44.969 46.9047 44.969 45.8906C44.969 44.8773 44.1471 44.0547 43.133 44.0547Z" fill="black"/>
<path d="M51.6016 44.0547C51.1189 44.0547 50.6449 44.2512 50.3042 44.5926C49.9621 44.9339 49.7656 45.408 49.7656 45.8906C49.7656 46.3733 49.9621 46.8473 50.3042 47.1887C50.6449 47.5301 51.1189 47.7266 51.6016 47.7266C52.0842 47.7266 52.5583 47.5301 52.8996 47.1887C53.241 46.8473 53.4375 46.3733 53.4375 45.8906C53.4375 45.408 53.2417 44.9339 52.8996 44.5926C52.5583 44.2512 52.0842 44.0547 51.6016 44.0547Z" fill="black"/>
<path d="M40.207 73.4297H21.6641C20.65 73.4297 19.8281 74.2516 19.8281 75.2656C19.8281 76.2797 20.65 77.1016 21.6641 77.1016H40.207C41.2211 77.1016 42.043 76.2797 42.043 75.2656C42.043 74.2516 41.2211 73.4297 40.207 73.4297Z" fill="black"/>
<path d="M13.8008 73.4297C13.3181 73.4297 12.8448 73.6262 12.5034 73.9676C12.1599 74.3089 11.9648 74.783 11.9648 75.2656C11.9648 75.7483 12.1599 76.2223 12.5034 76.5637C12.8448 76.9051 13.3181 77.1016 13.8008 77.1016C14.2841 77.1016 14.7575 76.9051 15.0988 76.5637C15.4402 76.2223 15.6367 75.7483 15.6367 75.2656C15.6367 74.783 15.4409 74.3089 15.0988 73.9676C14.7575 73.6262 14.2841 73.4297 13.8008 73.4297Z" fill="black"/>
<path d="M40.8496 58.7422H13.5859C12.5719 58.7422 11.75 59.5641 11.75 60.5781C11.75 61.5922 12.5719 62.4141 13.5859 62.4141H40.8496C41.8637 62.4141 42.6855 61.5922 42.6855 60.5781C42.6855 59.5641 41.8637 58.7422 40.8496 58.7422Z" fill="black"/>
<path d="M93.1523 61.4358L88.8844 58.7084C88.4068 58.4036 87.8159 58.3362 87.2816 58.5255C86.7473 58.7156 86.3306 59.1416 86.1528 59.6794L84.5227 64.6107C84.2042 65.5731 84.7263 66.6115 85.6895 66.93C85.881 66.9931 86.0753 67.0232 86.2661 67.0232C87.0363 67.0232 87.7542 66.5348 88.0088 65.7631L88.0353 65.6835C88.414 67.2254 88.6062 68.8154 88.6062 70.4426C88.6062 81.4081 79.6854 90.3281 68.7207 90.3281C57.756 90.3281 48.8359 81.4073 48.8359 70.4426C48.8359 59.4779 57.756 50.5578 68.7207 50.5578C71.5578 50.5578 74.2966 51.1423 76.8619 52.2948C77.7863 52.7101 78.8728 52.297 79.2888 51.3725C79.7048 50.4474 79.2917 49.3609 78.3665 48.9449C77.9513 48.7585 77.5318 48.5856 77.1093 48.4243V20.9526C77.1093 20.4664 76.9164 20.0002 76.5722 19.656L57.4784 0.53859C57.1342 0.193634 56.6673 0 56.1797 0H7.71093C3.45888 0 0 3.45888 0 7.71094V86.2891C0 90.5404 3.45888 94 7.71093 94H69.3984C69.4859 94 69.572 93.9914 69.6566 93.9799C82.2134 93.4865 92.2781 83.1192 92.2781 70.4426C92.2781 68.4862 92.0428 66.575 91.5795 64.7218C92.3598 64.9843 93.2477 64.6967 93.7109 63.9717C94.2567 63.1168 94.0064 61.9815 93.1523 61.4358ZM58.0156 6.27159L70.837 19.1088H62.0547C59.8272 19.1088 58.0156 17.2973 58.0156 15.0697V6.27159ZM7.71093 90.3281C5.48343 90.3281 3.67187 88.5159 3.67187 86.2891V7.71094C3.67187 5.48343 5.48343 3.67188 7.71093 3.67188H54.3437V14.6796H48.6523C47.6383 14.6796 46.8164 15.5022 46.8164 16.5155C46.8164 17.5296 47.6383 18.3515 48.6523 18.3515H55.0788C56.3138 20.967 58.9759 22.7814 62.0547 22.7814H73.4375V47.3586C71.897 47.0452 70.3221 46.886 68.7207 46.886C55.7314 46.886 45.164 57.4534 45.164 70.4426C45.164 78.794 49.533 86.1435 56.1044 90.3281H7.71093Z" fill="black"/>
<path d="M68.72 55.4375C60.4461 55.4375 53.7148 62.1688 53.7148 70.4427C53.7148 78.7166 60.4461 85.4486 68.72 85.4486C76.9939 85.4486 83.726 78.7166 83.726 70.4427C83.726 62.1688 76.9939 55.4375 68.72 55.4375ZM68.72 81.7767C62.4707 81.7767 57.3867 76.6921 57.3867 70.4427C57.3867 64.1941 62.4707 59.1094 68.72 59.1094C74.9694 59.1094 80.0541 64.1941 80.0541 70.4427C80.0541 76.6921 74.9694 81.7767 68.72 81.7767Z" fill="black"/>
<path d="M71.9092 68.6068H70.5566V63.9746C70.5566 62.9605 69.7348 62.1387 68.7207 62.1387C67.7074 62.1387 66.8848 62.9605 66.8848 63.9746V70.4427C66.8848 71.4568 67.7074 72.2786 68.7207 72.2786H71.9092C72.9233 72.2786 73.7451 71.4568 73.7451 70.4427C73.7451 69.4294 72.9233 68.6068 71.9092 68.6068Z" fill="black"/>
</g>
<defs>
<clipPath id="clip0">
<rect width="94" height="94" fill="white"/>
</clipPath>
</defs>
</svg>

<svg width="94" height="94" fill="none" xmlns="http://www.w3.org/2000/svg"><g clip-path="url(#clip0)"><path d="M75.273 20.953v65.336a5.875 5.875 0 01-5.875 5.875H7.711a5.875 5.875 0 01-5.875-5.875V7.711A5.875 5.875 0 017.71 1.836h48.47l19.093 19.117z" fill="#C9F3FF"/><path d="M75.296 20.953v65.336a5.875 5.875 0 01-5.875 5.875H7.734a5.875 5.875 0 01-5.875-5.875V7.711a5.875 5.875 0 015.875-5.875h48.468l19.094 19.117z" fill="#C9F3FF"/><path d="M56.18 15.07a5.875 5.875 0 005.875 5.875h13.218L56.18 1.828V15.07z" fill="#FFC66C"/><path d="M13.586 16.516h24.969v14.687h-24.97V16.516z" fill="#fff"/><path fill-rule="evenodd" clip-rule="evenodd" d="M90.441 70.443c0 11.997-9.724 21.722-21.72 21.722C56.725 92.165 47 82.44 47 70.443c0-11.996 9.725-21.72 21.72-21.72 11.997 0 21.721 9.724 21.721 21.72z" fill="#fff"/><path fill-rule="evenodd" clip-rule="evenodd" d="M81.89 70.443c0 7.273-5.897 13.17-13.17 13.17s-13.17-5.897-13.17-13.17 5.897-13.17 13.17-13.17 13.17 5.897 13.17 13.17z" fill="#4DBAF6"/><path d="M13.586 33.04h24.969a1.836 1.836 0 001.836-1.837V16.516a1.836 1.836 0 00-1.836-1.836h-24.97a1.836 1.836 0 00-1.835 1.836v14.687c0 1.014.822 1.836 1.836 1.836zm1.836-14.688h21.297v11.015H15.422V18.352zm33.23 14.688h14.871a1.836 1.836 0 000-3.673h-14.87a1.836 1.836 0 000 3.672zm-5.519 11.015H13.586a1.836 1.836 0 000 3.672h29.547a1.836 1.836 0 100-3.672zm8.469 0c-.483 0-.957.196-1.298.538a1.848 1.848 0 00-.538 1.298c0 .482.196.956.538 1.298.34.341.815.538 1.298.538a1.85 1.85 0 001.298-.538 1.85 1.85 0 00.538-1.298c0-.483-.196-.957-.538-1.298a1.85 1.85 0 00-1.298-.538zM40.207 73.43H21.664a1.836 1.836 0 100 3.672h18.543a1.836 1.836 0 100-3.672zm-26.407 0a1.842 1.842 0 00-1.836 1.836 1.844 1.844 0 001.837 1.836 1.85 1.85 0 001.298-.538 1.85 1.85 0 00.538-1.298c0-.483-.196-.957-.538-1.298a1.849 1.849 0 00-1.298-.538zm27.05-14.688H13.586a1.836 1.836 0 100 3.672H40.85a1.836 1.836 0 100-3.672z" fill="#000"/><path d="M93.152 61.436l-4.268-2.728a1.837 1.837 0 00-2.731.971l-1.63 4.932a1.835 1.835 0 103.486 1.152l.026-.08c.379 1.542.571 3.132.571 4.76 0 10.965-8.92 19.885-19.885 19.885-10.965 0-19.885-8.92-19.885-19.885 0-10.965 8.92-19.885 19.885-19.885 2.837 0 5.576.584 8.14 1.737a1.837 1.837 0 001.505-3.35c-.415-.187-.834-.36-1.257-.52V20.952c0-.487-.193-.953-.537-1.297L57.478.539A1.834 1.834 0 0056.18 0H7.71C3.46 0 0 3.459 0 7.71v78.58C0 90.54 3.459 94 7.71 94h61.688c.088 0 .174-.009.259-.02 12.556-.493 22.621-10.86 22.621-23.537 0-1.957-.235-3.868-.699-5.721a1.836 1.836 0 001.573-3.286zM58.016 6.272l12.821 12.837h-8.782a4.043 4.043 0 01-4.04-4.04V6.273zM7.71 90.328a4.044 4.044 0 01-4.04-4.039V7.711a4.043 4.043 0 014.04-4.04h46.633V14.68h-5.692a1.836 1.836 0 000 3.672h6.427a7.72 7.72 0 006.976 4.43h11.383v24.577a23.62 23.62 0 00-4.717-.473c-12.99 0-23.557 10.567-23.557 23.557 0 8.351 4.369 15.7 10.94 19.885H7.711z" fill="#000"/><path d="M68.72 55.438c-8.274 0-15.005 6.73-15.005 15.005 0 8.274 6.731 15.006 15.005 15.006 8.274 0 15.006-6.732 15.006-15.006 0-8.274-6.732-15.005-15.006-15.005zm0 26.339c-6.25 0-11.333-5.085-11.333-11.334S62.47 59.109 68.72 59.109s11.334 5.085 11.334 11.334c0 6.25-5.085 11.334-11.334 11.334z" fill="#000"/><path d="M71.91 68.607h-1.353v-4.632a1.836 1.836 0 10-3.672 0v6.468c0 1.014.822 1.836 1.836 1.836h3.188a1.836 1.836 0 100-3.672z" fill="#000"/></g><defs><clipPath id="clip0"><path fill="#fff" d="M0 0h94v94H0z"/></clipPath></defs></svg>
